packages/core/src/svgs/tokens/branded/EML.svg

<svg width="24" height="24" viewBox="0 0 24 24" fill="none" xmlns="http://www.w3.org/2000/svg">
<path d="M7.00005 14.278C6.35071 14.2853 5.70629 14.1647 5.10359 13.923C4.50088 13.6812 3.9517 13.3232 3.48741 12.8692C3.0231 12.4151 2.65277 11.8742 2.39755 11.2771C2.14235 10.6799 2.00726 10.0383 2 9.38906C2.00726 8.73973 2.14235 8.09818 2.39755 7.50107C2.65277 6.90395 3.0231 6.36295 3.48741 5.90896C3.9517 5.45498 4.50088 5.09689 5.10359 4.85516C5.70629 4.61343 6.35071 4.4928 7.00005 4.50013C8.05889 4.49293 9.09257 4.82281 9.9515 5.44204C10.8104 6.06127 11.45 6.93773 11.7779 7.9446C12.3167 9.65017 12.6667 10.0446 12.0001 12.978C12.0001 14.2835 12.1111 15.478 12.3335 16.2391C11.6668 15.5891 11.1333 13.9613 10.3334 13.9613C9.2056 13.9613 8.11116 14.2835 7.00005 14.2835V14.278Z" fill="url(#paint0_linear_364_4614)"/>
<path d="M15.439 9.96137C14.5501 10.0446 13.6557 10.0336 13.3334 9.71688C12.8001 9.19464 12 8.19463 11.6667 7.76129C11.8889 8.30574 12.3334 9.58908 12.3334 10.3724C12.3334 10.6835 12.2334 11.1614 12.1111 11.7114C11.4055 15.0558 12.4778 19.5002 17.0001 19.5002C19.7613 19.5002 22.0001 17.3114 22.0001 14.6113C21.9929 13.962 21.8578 13.3205 21.6025 12.7234C21.3473 12.1262 20.9771 11.5853 20.5127 11.1313C20.0484 10.6773 19.4993 10.3191 18.8965 10.0775C18.2938 9.83576 17.6495 9.71507 17.0001 9.72246C16.4557 9.72246 15.9278 9.80581 15.439 9.96137Z" fill="url(#paint1_linear_364_4614)"/>
<defs>
<linearGradient id="paint0_linear_364_4614" x1="5.21591" y1="6.99903" x2="15.7787" y2="18.543" gradientUnits="userSpaceOnUse">
<stop stop-color="#6DB82B"/>
<stop offset="1" stop-color="#C9D808"/>
</linearGradient>
<linearGradient id="paint1_linear_364_4614" x1="12.3334" y1="11.6725" x2="20.5223" y2="18.3724" gradientUnits="userSpaceOnUse">
<stop stop-color="#4683C3"/>
<stop offset="1" stop-color="#71C6E3"/>
</linearGradient>
</defs>
</svg>

<svg xmlns="http://www.w3.org/2000/svg" width="24" height="24" fill="none" viewBox="0 0 24 24">
    <path fill="url(#EML__a)" d="M7 14.278a4.946 4.946 0 0 1-5-4.889A4.945 4.945 0 0 1 7 4.5a4.99 4.99 0 0 1 4.778 3.445c.539 1.705.889 2.1.222 5.033 0 1.306.111 2.5.334 3.261-.667-.65-1.2-2.278-2-2.278-1.128 0-2.223.322-3.334.322z"/>
    <path fill="url(#EML__b)" d="M15.439 9.961c-.889.084-1.783.073-2.106-.244C12.8 9.195 12 8.195 11.667 7.76c.222.545.666 1.828.666 2.611 0 .312-.1.79-.222 1.34-.706 3.344.367 7.788 4.89 7.788 2.76 0 5-2.189 5-4.889a4.94 4.94 0 0 0-3.105-4.533A4.9 4.9 0 0 0 17 9.722c-.544 0-1.072.084-1.561.24"/>
    <defs>
        <linearGradient id="EML__a" x1="5.216" x2="15.779" y1="6.999" y2="18.543" gradientUnits="userSpaceOnUse">
            <stop stop-color="#6DB82B"/>
            <stop offset="1" stop-color="#C9D808"/>
        </linearGradient>
        <linearGradient id="EML__b" x1="12.333" x2="20.522" y1="11.672" y2="18.372" gradientUnits="userSpaceOnUse">
            <stop stop-color="#4683C3"/>
            <stop offset="1" stop-color="#71C6E3"/>
        </linearGradient>
    </defs>
</svg>
